telier/img/footer-logo.svg

<svg width="177" height="55" viewBox="0 0 177 55" fill="none" xmlns="http://www.w3.org/2000/svg">
<path d="M61.4974 11.0618C59.2541 10.675 57.1655 12.1448 56.7014 14.3107C56.3146 16.554 57.707 18.6426 59.9503 19.1068C62.1936 19.4935 64.2822 18.0238 64.7463 15.8578C65.2105 13.6145 63.7407 11.4486 61.4974 11.0618Z" fill="#0047FF"/>
<path d="M24.7537 12.1448H0V17.4823H9.12795V40.5341H15.6258V17.4823H24.7537V12.1448Z" fill="#0047FF"/>
<path d="M42.7001 31.4058C42.7775 30.3228 42.8548 29.7813 42.8548 29.704C42.8548 27.4607 42.3906 25.4495 41.385 23.7477C40.3794 22.0458 39.0644 20.7308 37.2853 19.8025C36.4344 19.3384 35.5834 19.029 34.6552 18.7969C33.6495 18.5649 32.5666 18.4102 31.4836 18.4102C29.3177 18.4102 27.3064 18.8743 25.5272 19.8799C23.748 20.8082 22.3556 22.2005 21.35 23.9024C20.3444 25.6042 19.8029 27.538 19.8029 29.704C19.8029 31.8699 20.3444 33.8038 21.35 35.5056C22.3556 37.2074 23.8254 38.5225 25.7593 39.5281C27.6158 40.4564 29.8592 40.9979 32.2572 40.9979C34.9646 40.9979 37.2852 40.4564 39.0644 39.2961L38.7549 37.9036L37.8267 33.8812C37.0532 34.5774 36.2796 35.1189 35.3514 35.5056C34.5005 35.8151 33.4948 36.0471 32.3345 36.0471C30.7101 36.0471 29.3176 35.6604 28.2346 34.8868C27.1517 34.1132 26.4555 33.0303 26.1461 31.7152H42.7001V31.4058ZM26.1461 27.6928C26.3782 26.3004 26.9196 25.2174 27.9252 24.3665C28.9308 23.5929 30.0912 23.1288 31.561 23.1288C32.9534 23.1288 34.191 23.5156 35.1193 24.3665C35.5834 24.7533 35.8929 25.14 36.2023 25.6042C36.589 26.223 36.8211 26.8419 36.8985 27.6154H26.1461V27.6928Z" fill="#0047FF"/>
<path d="M53.3751 0H47.032V40.5341H53.3751V0Z" fill="#0047FF"/>
<path d="M57.5523 43.8611V55.0002H63.8954V43.8611V22.0469H57.5523V43.8611Z" fill="#0047FF"/>
<path d="M90.9697 31.4058C91.047 30.3228 91.1244 29.7813 91.1244 29.704C91.1244 27.4607 90.6603 25.4495 89.6547 23.7477C88.649 22.0458 87.334 20.7308 85.5548 19.8025C84.7039 19.3384 83.8531 19.029 82.9248 18.7969C81.9192 18.5649 80.8361 18.4102 79.7532 18.4102C77.5872 18.4102 75.576 18.8743 73.7968 19.8799C72.0177 20.8082 70.6253 22.2005 69.6196 23.9024C68.614 25.6042 68.0725 27.538 68.0725 29.704C68.0725 31.8699 68.614 33.8038 69.6196 35.5056C70.6253 37.2074 72.0951 38.5225 74.0289 39.5281C75.8855 40.4564 78.1287 40.9979 80.5267 40.9979C83.2341 40.9979 85.5548 40.4564 87.334 39.2961L86.0963 33.8038C85.3228 34.5 84.5492 35.0415 83.6209 35.4283C82.77 35.7377 81.7645 35.9698 80.6041 35.9698C78.9797 35.9698 77.5872 35.583 76.5043 34.8094C75.4213 34.0359 74.7251 32.9529 74.4157 31.6379H90.9697V31.4058ZM74.4157 27.6928C74.6478 26.3004 75.1892 25.2174 76.1948 24.3665C77.2005 23.5929 78.3608 23.1288 79.8306 23.1288C81.223 23.1288 82.4606 23.5156 83.3889 24.3665C83.853 24.7533 84.1625 25.1401 84.4719 25.6815C84.8587 26.3004 85.0907 26.9192 85.168 27.6928H74.4157Z" fill="#0047FF"/>
<path d="M108.607 24.2128C107.988 24.1355 107.601 24.1355 107.446 24.1355C105.667 24.1355 104.197 24.677 103.192 25.6826C102.186 26.6882 101.645 28.2353 101.645 30.2465V40.5348H95.3016V18.7206H101.335V21.5827C102.109 20.4998 103.114 19.7262 104.43 19.1847C105.28 18.798 106.286 18.5659 107.369 18.4885C107.756 20.4224 108.22 22.2789 108.607 24.2128Z" fill="#0047FF"/>
<path d="M142.334 16.7857C140.09 16.3989 138.002 17.8687 137.538 20.0346C137.151 22.2779 138.543 24.3665 140.786 24.8306C143.03 25.2174 145.118 23.7476 145.583 21.5817C146.047 19.3384 144.577 17.2498 142.334 16.7857Z" fill="#FF9700"/>
<path d="M129.338 46.877C127.095 46.4902 125.006 47.96 124.542 50.1259C124.155 52.3692 125.548 54.4578 127.791 54.9219C130.034 55.3087 132.123 53.839 132.587 51.673C133.051 49.4297 131.581 47.3411 129.338 46.877Z" fill="#FF9700"/>
<path d="M166.778 46.877C164.534 46.4902 162.446 47.96 161.982 50.1259C161.595 52.3692 162.987 54.4578 165.231 54.9219C167.474 55.3087 169.563 53.839 170.027 51.673C170.491 49.4297 169.021 47.3411 166.778 46.877Z" fill="#FF9700"/>
<path d="M173.276 4.79603H125.547C125.393 3.94512 125.161 3.17156 125.006 2.32066C124.697 1.00562 123.304 0 121.989 0H111.159C111.624 2.01123 112.088 4.17718 112.552 6.26577H119.436C121.757 16.8634 124.078 27.4611 126.398 38.0588C125.857 39.3738 125.238 40.6888 124.697 42.0039C123.768 44.0925 124.774 46.7225 127.404 46.7225H167.319C171.342 46.7225 171.342 40.4568 167.319 40.4568H132.123C132.509 39.2191 132.664 37.9814 132.509 36.6664C144.19 35.274 155.948 33.8042 167.629 32.4118C169.485 32.1798 171.342 31.9477 173.198 31.7156C174.9 31.4836 176.37 30.4779 176.37 28.5441V7.81288C176.447 6.26577 174.977 4.79603 173.276 4.79603ZM170.104 25.914C158.191 27.3837 146.279 28.8535 134.289 30.2459C133.283 30.4006 132.2 30.4779 131.194 30.6327C130.808 28.7761 130.343 26.8423 129.957 24.9857C128.951 20.3444 127.945 15.7805 126.94 11.1391H170.104V25.914Z" fill="#FF9700"/>
<path d="M160.899 19.7254C160.899 19.8028 160.899 19.8801 160.821 19.9575C160.203 19.0292 159.274 18.333 158.114 18.101C155.948 17.7142 153.86 19.0292 153.395 21.1178C152.854 20.2669 152.622 19.2613 152.854 18.1783C153.241 15.935 155.407 14.4653 157.65 14.9294C159.893 15.3935 161.363 17.4821 160.899 19.7254Z" fill="#FF9700"/>
</svg>

<svg width="177" height="55" fill="none" xmlns="http://www.w3.org/2000/svg"><path d="M61.497 11.062a4.178 4.178 0 00-4.796 3.249c-.386 2.243 1.006 4.332 3.25 4.796a4.179 4.179 0 004.795-3.25 4.023 4.023 0 00-3.249-4.795zm-36.743 1.083H0v5.337h9.128v23.052h6.498V17.482h9.128v-5.337z" fill="#0047FF"/><path d="M42.7 31.406c.078-1.083.155-1.625.155-1.702 0-2.243-.464-4.255-1.47-5.956-1.006-1.702-2.32-3.017-4.1-3.946a10.864 10.864 0 00-2.63-1.005c-1.005-.232-2.088-.387-3.171-.387-2.166 0-4.178.464-5.957 1.47-1.779.928-3.171 2.32-4.177 4.022-1.006 1.702-1.547 3.636-1.547 5.802 0 2.166.541 4.1 1.547 5.802 1.006 1.701 2.475 3.017 4.41 4.022 1.856.928 4.1 1.47 6.497 1.47 2.708 0 5.028-.542 6.807-1.702l-.31-1.392-.927-4.023c-.774.696-1.547 1.238-2.476 1.625-.85.31-1.856.541-3.017.541-1.624 0-3.016-.387-4.1-1.16-1.082-.774-1.779-1.857-2.088-3.172H42.7v-.31zm-16.554-3.713c.232-1.393.774-2.476 1.78-3.327 1.005-.773 2.165-1.237 3.635-1.237 1.392 0 2.63.387 3.558 1.237.464.387.774.774 1.083 1.238.387.619.62 1.238.697 2.011H26.145v.078zM53.375 0h-6.343v40.534h6.343V0zm4.177 43.861v11.14h6.343V22.046h-6.343V43.86zM90.97 31.406c.077-1.083.154-1.625.154-1.702 0-2.243-.464-4.255-1.47-5.956-1.005-1.702-2.32-3.017-4.1-3.946a10.861 10.861 0 00-2.63-1.005c-1.005-.232-2.088-.387-3.17-.387-2.167 0-4.178.464-5.957 1.47-1.78.928-3.172 2.32-4.177 4.022-1.006 1.702-1.547 3.636-1.547 5.802 0 2.166.541 4.1 1.547 5.802 1.005 1.701 2.475 3.017 4.409 4.022 1.856.928 4.1 1.47 6.498 1.47 2.707 0 5.028-.542 6.807-1.702l-1.238-5.492c-.773.696-1.547 1.237-2.475 1.624a8.737 8.737 0 01-3.017.542c-1.624 0-3.017-.387-4.1-1.16-1.083-.774-1.779-1.857-2.088-3.172H90.97v-.232zm-16.554-3.713c.232-1.393.773-2.476 1.779-3.327 1.006-.773 2.166-1.237 3.636-1.237 1.392 0 2.63.387 3.558 1.237.464.387.773.774 1.083 1.316.387.618.619 1.237.696 2.01H74.416zm34.191-3.48c-.619-.078-1.006-.078-1.161-.078-1.779 0-3.249.542-4.254 1.548-1.006 1.005-1.547 2.552-1.547 4.564v10.288h-6.343V18.72h6.033v2.862c.774-1.083 1.779-1.857 3.095-2.398.85-.387 1.856-.62 2.939-.697.387 1.934.851 3.79 1.238 5.725z" fill="#0047FF"/><path d="M142.334 16.786a4.178 4.178 0 00-4.796 3.249c-.387 2.243 1.005 4.331 3.248 4.796a4.18 4.18 0 004.797-3.25c.464-2.243-1.006-4.331-3.249-4.795zm-12.996 30.091a4.179 4.179 0 00-4.796 3.249c-.387 2.243 1.006 4.332 3.249 4.796a4.179 4.179 0 004.796-3.249c.464-2.243-1.006-4.332-3.249-4.796zm37.44 0a4.178 4.178 0 00-4.796 3.249c-.387 2.243 1.005 4.332 3.249 4.796a4.179 4.179 0 004.796-3.249c.464-2.243-1.006-4.332-3.249-4.796z" fill="#FF9700"/><path d="M173.276 4.796h-47.729c-.154-.85-.386-1.624-.541-2.475C124.697 1.006 123.304 0 121.989 0h-10.83c.465 2.011.929 4.177 1.393 6.266h6.884l6.962 31.793c-.541 1.315-1.16 2.63-1.701 3.945-.929 2.089.077 4.718 2.707 4.718h39.915c4.023 0 4.023-6.265 0-6.265h-35.196c.386-1.238.541-2.476.386-3.79 11.681-1.393 23.439-2.863 35.12-4.255l5.569-.696c1.702-.232 3.172-1.238 3.172-3.172V7.813c.077-1.547-1.393-3.017-3.094-3.017zm-3.172 21.118c-11.913 1.47-23.825 2.94-35.815 4.332-1.006.155-2.089.232-3.095.387-.386-1.857-.851-3.79-1.237-5.647-1.006-4.642-2.012-9.206-3.017-13.847h43.164v14.775z" fill="#FF9700"/><path d="M160.899 19.725c0 .078 0 .155-.078.232-.618-.928-1.547-1.624-2.707-1.856-2.166-.387-4.254.928-4.719 3.017-.541-.851-.773-1.857-.541-2.94a4.023 4.023 0 014.796-3.249c2.243.464 3.713 2.553 3.249 4.796z" fill="#FF9700"/></svg>
